X: 88
T: No_26_Song_to_Put_the_Eagle_to_Sleep.krn
N: Derived from No_26_Song_to_Put_the_Eagle_to_Sleep.krn
%%abc-version 2.0
%%abcx-abcm2ps-target-version 5.9.1 (29 Sep 2008)
%%abc-creator hum2abc beta
%%abcx-conversion-date 2019/03/15 08:37:56
%%humdrum-veritas 2179592282
%%humdrum-veritas-data 871962345
%%linebreak <none>
%%barnumbers 0
L: 1/8
M: 3/4
K: A clef=bass
[K:clef=bass][M:3/4]A,A, [I:setbarnb 1]| 
A,4B,A, | 
(G,3F,) G,G, | 
F,4F,F, | 
C,2z2A,A, | 
A,4B,A, | 
(G,3F,) G,G, | 
F,4F,F, ||  
[M:2/4]C,2z2 ||  
[M:3/4]F,4G,F, | 
F,4F,F, ||  
[M:2/4]C,4 ||  
[M:3/4]F,4G,F, | 
F,4F,F, | 
[M:2/4]C,4 :|]  



